X:1
T:James Gibb editions
T:Father, beneath Thy sheltering wing - Barnby
%%score [ ( 1 2 ) ( 3 4 ) ]
L:1/8
Q:1/4=168
M:3/2
K:A
V:1 treble nm="Midi_74"
V:2 treble 
V:3 bass nm="Midi_74"
V:4 bass 
V:1
"^Smooth""^Father, beneath Thy sheltering wing""^Joseph Barnby\n(1838-96)""^L.M." A4"^-" G4 F4 | %1
 G8"^cresc." E4 | (F4 E4) C4 | D12 | E4 F4 G4 | A8 G4 | (F4 G4) F4 | E12 || E4 F4 G4 | A8 A4 | %10
"^cresc." (A4 B4) c4 | d8 ||!f! d4 | ^d8 d4 | e8 c4 | A8 B4 | A12 || A12 | A12 |] %19
V:2
 C4 C4 C4 | D8 D4 | (C4 B,4) A,4 | A,12 | B,4 E4 E4 | E8 E4 | E4 ^D8 | E12 || E4 B,4 E4 | E8 E4 | %10
 E8 E4 | D8 || A4 | A8 A4 | A8 A4 | (E4 F4) G4 | A12 || F12 | E12 |] %19
V:3
 E,4 E,4"^1" F,4 | E,8 G,4 | A,4 =G,4 G,4 | F,12 | !courtesy!^G,4 A,4 B,4 | A,8 B,4 | %6
 (C4 B,4) A,4 | G,12 || G,4 A,4 B,4 | A,8 C4 | (C4 B,4) A,4 | A,8 || A,4 | A,4 B,4 =C4 | %14
 !courtesy!^C8 E4 | C4 D8 | C12 || D12 | C12 |] %19
V:4
 A,,4 A,,4 A,,4 | A,,8 A,,4 | A,,8 A,,4 | D,12 | D,4 D,4 D,4 | C,8 B,,4 | A,,4 B,,8 | E,12 || %8
 D,4 D,4 D,4 | C,8 A,4 | =G,8 G,4 | F,8 || F,4 | =F,8 F,4 | E,8 E,4 | E,8 E,4 | A,,12 || D,12 | %18
 A,,12 |] %19

